X: 6
T: If We Hadn't Any Women In The World
R: barndance
M: 4/4
L: 1/8
K: Gmaj
R: highland fling
|: B>c |d>ed>B G>AB>G | E>AG>E D2 D>A |
[1 B>GB>d g>ed>B | A2 A>G A2 :|\
[2 B>GB>d A>GA>B | G2 G>F G2 ||
(3Bcd |e2 e>f g2 g>f | e>dd>B d2 (3Bcd |\
e>dB>d g>ed>B | A2 A>G A2 B>c |
d>ed>B G>AB>G | E>AG>E D2 D>A |\
B>dB>G A>GA>B | G2 G>F G2 |]


Tune 1376	Setting 14733

